!!!OTL: Trotz dem Tode.
!!!OTL-incipit: KOMM ZU MIR IN GARTEN, KOMM ZU MIR IN'S GRAS
!!!ARE: Europa, Mitteleuropa, Deutschland, Franken
!!!SCT: Z1151
!!!TXL: @@DE
!!!YEM: Copyright 1995, estate of Helmut Schaffrath.
**kern	**text
*ICvox	*
*M3/4	*
*k[f#]	*
*G:	*
!LO:TX:a:t=Franken.	!
{4d	Komm
=1	=1
8gL	ʒu
8aJ	.
4b/	mir
8aL	in
8gJ	.
=2	=2
(8aL	Gar-
8f#J)	.
4d}	-ten,
{4dd	komm
=3	=3
4cc	ʒu
4b	mir
8aL	in's
8gJ	.
=4	=4
2a;}	Gras;
{8aL	ſprich
8bJ	.
=5	=5
4cc	aus
4b	dei-
8aL	-nen
8gJ	.
=6	=6
8gL	Jam-
8f#J	.
4g}	-mer,
{8aL	es
8ccJ	.
=7	=7
8bL	bringt
8aJ	.
4g	mir
4f#	nicht
=8	=8
2g}	Schmerʒ.
==	==
!!!AGN: Liebes - Lied
!!!ONB: ESAC (Essen Associative Code) Database: ZUCCAL
!!!AMT: simple triple
!!!AIN: vox
!!!EED: Helmut Schaffrath
!!!EEV: 1.0
!!!GTL: V. Lieder der Minne.
!!!URL-scan: https://www.digitale-sammlungen.de/de/view/bsb11160573?page=331
!!!ENC: Anna Maria Matuszewska
!!!EEV: 2025/02/05
*-	*-
